X: 16982
T: He's Almost Dead
R: reel
M: 4/4
K: Eminor
|:GF|~E3 F GABG|dedB AGAd|eaag efge|BcBG ~E3 D|
EG{A}GA BABc|dedB A3 d|eaag ((3age g)e|1 befd e2:|2 befd e2||
|:ef|geef ~g2 fe|dedB ~d3 f|geef ~g2 fe|fdda ddfd|
geef ~g2 fe|dedB defa|gcca ccgc|fdgf e2:|

